svgs/wulkanowy.svg

<svg width="24" height="24" viewBox="0 0 24 24" fill="none" xmlns="http://www.w3.org/2000/svg">
<path d="M15.0306 19.7546V19.859L14.877 21.765C14.877 21.8956 14.749 22 14.6211 22H9.83429C9.7319 22 9.62951 21.9478 9.57831 21.8695L8.78478 20.3551L8.04245 18.5013V18.2924L9.27114 15.8381C9.32234 15.7598 9.32234 15.7076 9.29674 15.6292L8.68239 13.9321C8.65679 13.8799 8.68239 13.8016 8.70799 13.7493L9.7063 11.5561C9.80869 11.3473 10.1415 11.3473 10.2183 11.5822L10.5254 12.5744L11.4981 15.2115C11.5237 15.2637 11.5749 15.342 11.6517 15.3681L13.6995 16.0731C13.7763 16.0992 13.8531 16.1514 13.8787 16.2298L15.0306 19.7546ZM9.14315 5.57702C9.14315 4.9765 9.52712 4.45431 10.0391 4.21932L9.98788 4.01044C9.98788 3.72324 10.3206 3.48825 10.7302 3.48825H10.7558C10.8509 3.32979 10.9876 3.20167 11.1505 3.11859C11.3135 3.03551 11.496 3.00076 11.6773 3.01828L11.7541 2.96606C12.0357 2.5483 12.7012 2.2611 13.4948 2.2611C13.8019 2.2611 14.0835 2.31332 14.3139 2.36554C14.3907 2.28721 14.5187 2.20888 14.6723 2.20888C14.8258 2.20888 14.9794 2.28721 15.0306 2.41775C15.2354 2.18277 15.5938 2 16.0033 2C16.6433 2 17.1552 2.41775 17.1552 2.93995L17.1296 3.12272L17.2064 3.22715C17.616 3.38381 17.8976 3.67102 17.8976 4.01044C17.8976 4.37598 17.5136 4.7154 17.0272 4.84595C16.976 4.84595 16.9505 4.87206 16.9505 4.92428C16.9505 5.21149 16.6689 5.47258 16.2849 5.49869V5.5248C16.2849 6.09922 15.2354 6.56919 13.9299 6.56919C13.6483 6.56919 13.3924 6.54308 13.1364 6.49086V6.51697C13.1364 6.75196 12.8292 6.93473 12.4709 6.93473H12.4197L12.4709 7.11749C12.4709 7.48303 12.0101 7.77024 11.4469 7.77024H11.2678L11.1654 7.82245C11.1142 8.00522 10.9606 8.13577 10.7814 8.13577C10.551 8.13577 10.3718 7.953 10.3718 7.71802C10.3718 7.58747 10.3974 7.50914 10.4742 7.43081L10.4998 7.32637C10.4486 7.24804 10.4486 7.19582 10.4486 7.11749C10.4486 7.06527 10.3974 7.03916 10.3718 7.03916C9.6807 6.88251 9.14315 6.28198 9.14315 5.57702Z" fill="white"/>
<path d="M21.5324 22H18.3327C18.2559 22 18.1791 21.9739 18.1279 21.8955L15.9777 18.8146L15.9521 18.7624L14.877 15.577L14.7491 15.4464L12.1381 14.0887L12.0101 13.9321L11.6261 11.9739L11.5749 11.8955L10.7046 10.5639C10.6534 10.4856 10.6534 10.4073 10.679 10.329L11.2166 9.15402C11.2678 9.04958 11.3446 8.99736 11.4469 8.99736L12.4453 8.94514C12.5221 8.94514 12.5732 8.91903 12.5988 8.86682L13.3412 8.2924C13.4692 8.18796 13.6995 8.24018 13.7763 8.39684L16.2849 13.6449L16.3105 13.6971L16.6433 15.812L16.6945 15.9425L21.7372 21.5822C21.8908 21.7389 21.7628 22 21.5324 22ZM7.83767 20.8511C7.86327 20.9295 7.86327 21.0078 7.81208 21.06L7.32572 21.8694C7.27452 21.9478 7.19773 22 7.09534 22H2.46216C2.25737 22 2.12939 21.7911 2.23178 21.6083L5.20111 17.1436L5.25231 17.0652L6.60898 11.1122C6.63458 11.0339 6.68578 10.9817 6.73697 10.9556L8.58001 9.9112C8.6568 9.88509 8.70799 9.80676 8.70799 9.72843L8.96397 8.63183C9.01517 8.39684 9.34794 8.34462 9.47593 8.5535L9.55272 8.71016C9.60391 8.76238 9.60391 8.84071 9.57832 8.91903L7.88887 13.8799V14.0104L8.29843 16.3864V16.5169L7.27452 18.8146V18.9712L7.83767 20.8511Z" fill="white"/>
</svg>

<svg xmlns="http://www.w3.org/2000/svg" viewBox="0 0 24 24"><path d="M21.532 22h-3.2a.231.231 0 0 1-.204-.105l-2.15-3.08-.026-.053-1.075-3.185-.128-.13-2.61-1.358-.129-.157-.384-1.958-.051-.079-.87-1.331a.258.258 0 0 1-.026-.235l.538-1.175c.05-.104.128-.157.23-.157l.998-.052c.077 0 .128-.026.154-.078l.742-.575c.128-.104.359-.052.435.105l2.509 5.248.026.052.332 2.115.052.13 5.042 5.64c.154.157.026.418-.205.418M7.838 20.851c.025.079.025.157-.026.209l-.486.81a.268.268 0 0 1-.23.13H2.461a.26.26 0 0 1-.23-.392l2.97-4.464.05-.079 1.357-5.953a.266.266 0 0 1 .128-.156L8.58 9.91a.196.196 0 0 0 .128-.183l.256-1.096c.051-.235.384-.287.512-.079l.077.157c.05.052.05.13.025.209l-1.69 4.96v.131l.41 2.376v.13l-1.023 2.299v.156l.563 1.88zm7.192-1.096v.104l-.153 1.906c0 .13-.128.235-.256.235H9.834a.313.313 0 0 1-.256-.13l-.793-1.515-.743-1.854v-.209l1.23-2.454c.05-.078.05-.13.025-.209l-.615-1.697c-.025-.052 0-.13.026-.183l.998-2.193c.103-.209.436-.209.512.026l.307.992.973 2.637c.026.053.077.131.154.157l2.048.705c.076.026.153.078.179.157l1.152 3.525M9.144 5.577c0-.6.384-1.123.896-1.358l-.051-.209c0-.287.333-.522.742-.522h.026a.98.98 0 0 1 .394-.37.957.957 0 0 1 .527-.1l.077-.052c.282-.418.947-.705 1.74-.705.308 0 .59.052.82.105a.514.514 0 0 1 .358-.157c.154 0 .307.078.359.209A1.31 1.31 0 0 1 16.003 2c.64 0 1.152.418 1.152.94l-.025.183.076.104c.41.157.692.444.692.783 0 .366-.384.705-.87.836-.052 0-.077.026-.077.078 0 .287-.282.549-.666.575v.026c0 .574-1.05 1.044-2.355 1.044-.282 0-.538-.026-.794-.078v.026c0 .235-.307.418-.665.418h-.051l.05.182c0 .366-.46.653-1.023.653h-.18l-.102.052a.41.41 0 0 1-.384.314.408.408 0 0 1-.41-.418c0-.13.026-.209.103-.287l.026-.105c-.051-.078-.051-.13-.051-.209 0-.052-.052-.078-.077-.078-.691-.156-1.229-.757-1.229-1.462z"/></svg>
